X:19000
T:Xiraldilla (CT 190)
R:Xiraldilla
C:Tradicional
S:Msica Tradicional Asturiana, (C) Tello & Tito. Asturies, 2001.
S:http://pagina.de/MusTradAst <telloytito@asturies.org>
N:Xiraldilla, dictada por Teresa Prez Cuenya, de sesenta aos, de Bedriana, ayuntamiento de Maliayo.
O:Bedriana (Maliayo)
A:Asturies
Z:Cancioneru de Torner 190
M:2/4
L:1/8
Q:1/4=160
W:Una mora me prendi
W:al entrar en Portugal
W:y por cadenas me ech
W:las trenzas de su collar.
W:
W:Y al echarme la cadena
W:en ella preso qued.
W:Ai, la prenda de mi vida,
W:regalo de mi querer!
K:Gm
|G3 G|BB AG|(A2 G2)|c3 B|cB AG|A4|
d3 d|AB cB|(A2 G2)|c3 B|AA G^F|G2 z2 :||
